src/smalltalk.svg

<svg xmlns="http://www.w3.org/2000/svg" viewBox="0 0 16 16">
 <path d="m 8,-1.5e-4 c -0.4041,0.0245 -0.9315,0.15132 -1.2383,0.35742 -0.6367,1.35090005 -0.5491,3.62280005 -0.4512,5.12110005 0.2695,2.5667999 0.6254,5.0194999 1.1153,7.3654999 0.3794,-0.016 0.7601,-0.018 1.1484,0 0.4899002,-2.346 0.8458002,-4.7987 1.1153002,-7.3654999 0.0979,-1.4983 0.1855,-3.7702 -0.4512,-5.12110005 -0.3068002,-0.20608 -0.8342002,-0.33286 -1.2383002,-0.3574 z m -1.6855,0.33008 c -0.638,-0.04889 -1.3288,0.30956 -1.6211,0.61719 -1.139,1.16360005 -1.0032,3.86050005 -0.4278,5.82219995 0.7243,2.2467 1.6002,4.0585 2.586,6.1255 0.1353,-0.022 0.3189,-0.037 0.5,-0.047 -0.4833,-2.111 -0.7962,-4.1598 -1.0684,-6.1937001 -0.1751,-1.3084999 -0.2332,-2.5720998 -0.1953,-3.7499998 0.0296,-0.9205001 0.1431,-1.7704001 0.4961,-2.52740005 -0.0877,-0.02491 -0.1784,-0.03984 -0.2695,-0.04682 z m 3.3710002,0 c -0.0911,0.00698 -0.1818,0.02191 -0.2695,0.04687 0.353,0.75695005 0.4665,1.60680005 0.4961,2.52740005 0.0379,1.1778 -0.0202,2.4414 -0.1953,3.7498999 -0.2722,2.0339 -0.5851,4.0847 -1.0684002,6.1957 0.1613,0.006 0.3349002,0.02 0.5000002,0.045 0.9855998,-2.067 1.8615998,-3.8788 2.5855998,-6.1255 0.576,-1.9616999 0.712,-4.6585999 -0.427,-5.82219995 -0.293,-0.30766 -0.983,-0.66611 -1.6214998,-0.61722 z M 4.363304,1.1541501 c -0.5915,0.2673 -1.0577,0.7617 -1.4492,1.3047 -0.3806,0.508 -0.7134,1.3112 -0.7071,1.9668 0.0091,0.9324 0.2409,1.9427999 0.6328,2.9198999 0.9112,1.9935 2.3531,3.9043 3.8223,5.6133 0.004,-0.034 0.1353,-0.056 0.1387,-0.057 -1.0323,-1.946 -1.9577,-3.8801 -2.6621,-5.9586 -0.2815,-1.0643 -0.4567,-1.9418999 -0.4707,-2.8222999 -0.0182,-1.1388 0.0982,-2.0926 0.6953,-2.9668 z m 7.2737,0 c 0.597,0.8742 0.713,1.828 0.695,2.9668 -0.014,0.8804 -0.189,1.7579999 -0.471,2.8222999 -0.711,2.0988 -1.618,3.9936 -2.6617998,5.9586 0.0348,0.008 0.1292,0.024 0.1387,0.057 1.4690998,-1.709 2.9110998,-3.6198 3.8220998,-5.6133 0.392,-0.9771 0.624,-1.9874999 0.633,-2.9198999 0.006,-0.6556 -0.326,-1.4588 -0.707,-1.9668 -0.392,-0.543 -0.858,-1.0374 -1.449,-1.3047 z m -3.635,11.7309999 c -0.6975,0 -1.2676,0.061 -1.2676,0.136 0,0.076 0.5701,0.137 1.2676,0.137 0.6974,0 1.2656002,-0.061 1.2656002,-0.137 0,-0.075 -0.5682002,-0.136 -1.2656002,-0.136 z m -1.0723,1.345 0,1.77 0.4961,0 0,-0.172 -0.1836,0 0,-1.426 0.1836,0 0,-0.172 -0.4961,0 z m 0.916,0 -0.0019,1.77 0.3144,0 0,-1.77 -0.3125,0 z m 0.7305,0 0,0.172 0.1836,0 0,1.426 -0.1836,0 0,0.172 0.4961002,0 0,-1.77 -0.4961002,0 z"/>
</svg>

<?xml version="1.0" encoding="UTF-8" standalone="no"?>
<!-- Created with Inkscape (http://www.inkscape.org/) -->

<svg
   xmlns:dc="http://purl.org/dc/elements/1.1/"
   xmlns:cc="http://creativecommons.org/ns#"
   xmlns:rdf="http://www.w3.org/1999/02/22-rdf-syntax-ns#"
   xmlns:svg="http://www.w3.org/2000/svg"
   xmlns="http://www.w3.org/2000/svg"
   xmlns:sodipodi="http://sodipodi.sourceforge.net/DTD/sodipodi-0.dtd"
   xmlns:inkscape="http://www.inkscape.org/namespaces/inkscape"
   id="svg3004"
   version="1.1"
   inkscape:version="0.91 r13725"
   width="16"
   height="16"
   xml:space="preserve"
   sodipodi:docname="smalltalk.svg"><metadata
     id="metadata3010"><rdf:RDF><cc:Work
         rdf:about=""><dc:format>image/svg+xml</dc:format><dc:type
           rdf:resource="http://purl.org/dc/dcmitype/StillImage" /><dc:title></dc:title></cc:Work></rdf:RDF></metadata><defs
     id="defs3008" /><sodipodi:namedview
     pagecolor="#ffffff"
     bordercolor="#666666"
     borderopacity="1"
     objecttolerance="10"
     gridtolerance="10"
     guidetolerance="10"
     inkscape:pageopacity="0"
     inkscape:pageshadow="2"
     inkscape:window-width="1366"
     inkscape:window-height="705"
     id="namedview3006"
     showgrid="false"
     fit-margin-top="0"
     fit-margin-left="0"
     fit-margin-right="0"
     fit-margin-bottom="0"
     inkscape:zoom="33.625"
     inkscape:cx="8"
     inkscape:cy="8"
     inkscape:window-x="-8"
     inkscape:window-y="-8"
     inkscape:window-maximized="1"
     inkscape:current-layer="g3012" /><g
     id="g3012"
     inkscape:groupmode="layer"
     inkscape:label="esug-Logo-Version3-13092006"
     transform="matrix(1.25,0,0,-1.25,-91.155929,223.59175)"><path
       style="fill:#000000;fill-opacity:1;fill-rule:evenodd;stroke:none"
       d="M 8 0 C 7.5958563 0.0245 7.0684725 0.15132188 6.7617188 0.35742188 C 6.1249525 1.7083469 6.2126119 3.9802406 6.3105469 5.4785156 C 6.5799531 8.0452781 6.9359437 10.49815 7.4257812 12.84375 C 7.805165 12.82825 8.1858663 12.826112 8.5742188 12.84375 C 9.0640562 10.498138 9.4200469 8.0452781 9.6894531 5.4785156 C 9.7874156 3.9802406 9.8750475 1.7083469 9.2382812 0.35742188 C 8.9315275 0.15132188 8.4041012 0.0245375 8 0 z M 6.3144531 0.33007812 C 5.676474 0.28119177 4.9856564 0.6396375 4.6933594 0.94726562 C 3.5544369 2.1109406 3.690155 4.8077687 4.265625 6.7695312 C 4.9898975 9.0161937 5.8658487 10.828344 6.8515625 12.894531 C 6.9868875 12.872781 7.1705362 12.858281 7.3515625 12.847656 C 6.8683425 10.736869 6.5553744 8.6882219 6.2832031 6.6542969 C 6.1081019 5.3457844 6.0499819 4.0822094 6.0878906 2.9042969 C 6.1174656 1.9838344 6.2310444 1.1339406 6.5839844 0.37695312 C 6.4963217 0.35198594 6.405593 0.33706189 6.3144531 0.33007812 z M 9.6855469 0.33007812 C 9.5944063 0.33706189 9.5036783 0.35198594 9.4160156 0.37695312 C 9.7689556 1.1339406 9.8825344 1.9838344 9.9121094 2.9042969 C 9.9500444 4.0822094 9.8918981 5.3457844 9.7167969 6.6542969 C 9.4446256 8.6882219 9.1316662 10.738809 8.6484375 12.849609 C 8.8096987 12.856234 8.9833325 12.870031 9.1484375 12.894531 C 10.134177 10.828381 11.010103 9.0161937 11.734375 6.7695312 C 12.309845 4.8077687 12.445537 2.1109406 11.306641 0.94726562 C 11.014342 0.6396375 10.323531 0.28119177 9.6855469 0.33007812 z M 4.3632812 1.1542969 C 3.7718375 1.4216469 3.305595 1.9159594 2.9140625 2.4589844 C 2.533495 2.9669594 2.2006563 3.7701688 2.2070312 4.4257812 C 2.2161375 5.3581813 2.4478637 6.3686281 2.8398438 7.3457031 C 3.75101 9.3391781 5.1928994 11.249659 6.6621094 12.958984 C 6.6661269 12.925359 6.7974062 12.903119 6.8007812 12.902344 C 5.7684948 10.95644 4.8430957 9.0219475 4.1386719 6.9433594 C 3.8572219 5.8790844 3.6819813 5.0014562 3.6679688 4.1210938 C 3.6498262 2.9822563 3.7661613 2.0284594 4.3632812 1.1542969 z M 11.636719 1.1542969 C 12.233839 2.0284594 12.350174 2.9822563 12.332031 4.1210938 C 12.318044 5.0014562 12.142777 5.8790844 11.861328 6.9433594 C 11.150014 9.0422344 10.24349 10.937194 9.1992188 12.902344 C 9.2340188 12.909844 9.3283619 12.925609 9.3378906 12.958984 C 10.807102 11.249659 12.248964 9.3391781 13.160156 7.3457031 C 13.55211 6.3686281 13.783862 5.3581813 13.792969 4.4257812 C 13.799344 3.7701688 13.466505 2.9669594 13.085938 2.4589844 C 12.694405 1.9159594 12.228162 1.4216469 11.636719 1.1542969 z M 8.0019531 12.884766 C 7.3045231 12.884766 6.734375 12.946097 6.734375 13.021484 C 6.734375 13.096859 7.3045231 13.158203 8.0019531 13.158203 C 8.6993844 13.158203 9.2675781 13.096859 9.2675781 13.021484 C 9.2675781 12.946109 8.6993844 12.884766 8.0019531 12.884766 z M 6.9296875 14.230469 L 6.9296875 16 L 7.4257812 16 L 7.4257812 15.828125 L 7.2421875 15.828125 L 7.2421875 14.402344 L 7.4257812 14.402344 L 7.4257812 14.230469 L 6.9296875 14.230469 z M 7.8457031 14.230469 L 7.84375 16 L 8.1582031 16 L 8.1582031 14.230469 L 7.8457031 14.230469 z M 8.5761719 14.230469 L 8.5761719 14.402344 L 8.7597656 14.402344 L 8.7597656 15.828125 L 8.5761719 15.828125 L 8.5761719 16 L 9.0722656 16 L 9.0722656 14.230469 L 8.5761719 14.230469 z "
       transform="matrix(0.8,0,0,-0.8,72.924743,178.8734)"
       id="path3048" /></g></svg>
